X:1
T:Man of the House, The
R:reel
D:Paddy Keenan: Port an Phiobaire
Z:id:hn-reel-370
M:4/4
L:1/8
K:Edor
E2BE GABG|E2BG FDAF|E2BE GABc|1 dBcA BFAF:|2 dBcA BEE2|]
efge fgaf|gfed edBd|1 e2ge fgaf|gfed Beed:|2 b2af gefd|edBG AGFD|]
